TCanvas/rotate.svg

<svg xmlns="http://www.w3.org/2000/svg" viewBox="0 0 596 472" preserveAspectRatio="none" width="596" height="472">
 <defs>
  <pattern id="pat_3003_416" patternUnits="userSpaceOnUse" width="4" height="4">
   <path d="M2,1h1v1h-1zM0,3h1v1h-1z" style="fill: green;"></path>
  </pattern>
 </defs>
 <path d="M0,0H596V472H0Z" style="fill: white;"></path>
 <g>
  <g transform="rotate(-90,60,47) translate(-318,47)">
   <path d="M0,0H378V477H0Z" style="fill: white; stroke: black; stroke-width: 1;"></path>
   <svg x="0" y="0" overflow="hidden" width="378" height="477" viewBox="0 0 378 477">
    <g>
     <path d="M0,477h108v-1h2v1h9v-1h2v1h2v-1h2v-2h2v1h2v1h1v-4h2v-1h4v-7h2v-1h2v2h2v-14h2v2h2v-13h1v-6h2v-16h2v-11h2v-12h2v-13h2v-12h2v-29h2v-24h2v-10h1v-36h2v-27h2v-35h2v-12h2v-36h2v-17h2v-34h2v-22h2v-11h1v-7h2v-21h2v-7h2v-19h2v13h2v-10h2v23h2v3h2v20h1v29h2v37h2v15h2v22h2v24h2v20h2v22h2v25h2v36h1v25h2v7h2v32h2v13h2v19h2v14h2v10h2v11h2v9h1v1h2v13h2v4h2v2h2v3h2v5h2v2h2v2h2v3h1v-2h2v1h2v-1h2v1h2v1h2v-1h2v1h4v-1h1v1h112L378,480H0Z" style="stroke-linejoin: miter; stroke: #000099; stroke-width: 1; fill: url(#pat_3003_416);"></path>
    </g>
    <g>
     <path d="M2,460l4,7l4,7l3,-2l4,-8l4,-8l4,-7l3,-7l4,-5l4,-4l4,-3l4,-1l3,2l4,3l4,5l4,7l3,9l4,10l4,11l4,-10l4,-13l3,-12l4,-12l4,-10l4,-9l4,-7l3,-5l4,-2l4,2l4,5l3,8l4,13l4,16l4,19l4,13l3,-26l4,-28l4,-30l4,-31l3,-33l4,-32l4,-32l4,-30l4,-28l3,-26l4,-22l4,-19l4,-14l3,-10l4,-5h4l4,5l4,10l3,14l4,19l4,22l4,26l3,28l4,30l4,32l4,32l4,33l3,31l4,30l4,28l4,26l3,-13l4,-19l4,-16l4,-13l4,-8l3,-5l4,-2l4,2l4,5l4,7l3,9l4,10l4,12l4,12l3,13l4,10l4,-11l4,-10l4,-9l3,-7l4,-5l4,-3l4,-2l3,1l4,3l4,4l4,5l4,7l3,7l4,8l4,8l4,2l3,-7l4,-7" style="fill: none; stroke: blue; stroke-width: 4;"></path>
    </g>
    <g>
     <g transform="translate(21,403)">
      <path style="stroke: red; stroke-width: 2; fill: none;" d="M0,0H-19m0,4v-8M0,0H19m0,4v-8"></path>
     </g>
     <g transform="translate(54,367)">
      <path style="stroke: red; stroke-width: 2; fill: none;" d="M0,0H-19m0,4v-8M0,0H19m0,4v-8M0,0V4m4,0h-8M0,0V-4m4,0h-8"></path>
     </g>
     <g transform="translate(88,332)">
      <path style="stroke: red; stroke-width: 2; fill: none;" d="M0,0H-19m0,4v-8M0,0H19m0,4v-8M0,0V7m4,0h-8M0,0V-7m4,0h-8"></path>
     </g>
     <g transform="translate(122,299)">
      <path style="stroke: red; stroke-width: 2; fill: none;" d="M0,0H-19m0,4v-8M0,0H19m0,4v-8M0,0V11m4,0h-8M0,0V-11m4,0h-8"></path>
     </g>
     <g transform="translate(155,267)">
      <path style="stroke: red; stroke-width: 2; fill: none;" d="M0,0H-19m0,4v-8M0,0H19m0,4v-8M0,0V15m4,0h-8M0,0V-15m4,0h-8"></path>
     </g>
     <g transform="translate(189,238)">
      <path style="stroke: red; stroke-width: 2; fill: none;" d="M0,0H-19m0,4v-8M0,0H19m0,4v-8M0,0V19m4,0h-8M0,0V-19m4,0h-8"></path>
     </g>
     <g transform="translate(223,211)">
      <path style="stroke: red; stroke-width: 2; fill: none;" d="M0,0H-19m0,4v-8M0,0H19m0,4v-8M0,0V22m4,0h-8M0,0V-22m4,0h-8"></path>
     </g>
     <g transform="translate(256,186)">
      <path style="stroke: red; stroke-width: 2; fill: none;" d="M0,0H-19m0,4v-8M0,0H19m0,4v-8M0,0V26m4,0h-8M0,0V-26m4,0h-8"></path>
     </g>
     <g transform="translate(290,164)">
      <path style="stroke: red; stroke-width: 2; fill: none;" d="M0,0H-19m0,4v-8M0,0H19m0,4v-8M0,0V30m4,0h-8M0,0V-30m4,0h-8"></path>
     </g>
     <g transform="translate(324,146)">
      <path style="stroke: red; stroke-width: 2; fill: none;" d="M0,0H-19m0,4v-8M0,0H19m0,4v-8M0,0V33m4,0h-8M0,0V-33m4,0h-8"></path>
     </g>
     <g transform="translate(357,131)">
      <path style="stroke: red; stroke-width: 2; fill: none;" d="M0,0H-19m0,4v-8M0,0H19m0,4v-8M0,0V37m4,0h-8M0,0V-37m4,0h-8"></path>
     </g>
     <path d="M16,398v10h10v-10zM49,362v10h10v-10zM83,327v10h10v-10zM117,294v10h10v-10zM150,262v10h10v-10zM184,233v10h10v-10zM217,205v10h10v-10zM251,181v10h10v-10zM285,159v10h10v-10zM318,141v10h10v-10zM352,126v10h10v-10z" style="stroke: cyan; fill: cyan;"></path>
    </g>
   </svg>
   <g>
    <g transform="translate(0,477)">
     <path d="M0,0h378M0,-14V0M9,-7V0M19,-7V0M28,-7V0M38,-14V0M47,-7V0M57,-7V0M66,-7V0M76,-14V0M85,-7V0M95,-7V0M104,-7V0M113,-14V0M123,-7V0M132,-7V0M142,-7V0M151,-14V0M161,-7V0M170,-7V0M180,-7V0M189,-14V0M198,-7V0M208,-7V0M217,-7V0M227,-14V0M236,-7V0M246,-7V0M255,-7V0M265,-14V0M274,-7V0M284,-7V0M293,-7V0M302,-14V0M312,-7V0M321,-7V0M331,-7V0M340,-14V0M350,-7V0M359,-7V0M369,-7V0M378,-14V0" style="stroke: black; stroke-width: 1;"></path>
     <g font-family="Arial" font-size="17" space="preserve" fill="black" text-anchor="middle">
      <text dy=".8em">
       -10
      </text>
      <text dy=".8em" transform="translate(38)">
       -8
      </text>
      <text dy=".8em" transform="translate(76)">
       -6
      </text>
      <text dy=".8em" transform="translate(113)">
       -4
      </text>
      <text dy=".8em" transform="translate(151)">
       -2
      </text>
      <text dy=".8em" transform="translate(189)">
       0
      </text>
      <text dy=".8em" transform="translate(227)">
       2
      </text>
      <text dy=".8em" transform="translate(265)">
       4
      </text>
      <text dy=".8em" transform="translate(302)">
       6
      </text>
      <text dy=".8em" transform="translate(340)">
       8
      </text>
      <text dy=".8em" transform="translate(378)">
       10
      </text>
     </g>
    </g>
    <g>
     <path d="M0,0v477M18,477H0M9,458H0M9,440H0M9,421H0M18,403H0M9,384H0M9,366H0M9,347H0M18,328H0M9,310H0M9,291H0M9,273H0M18,254H0M9,236H0M9,217H0M9,198H0M18,180H0M9,161H0M9,143H0M9,124H0M18,106H0M9,87H0M9,68H0M9,50H0M18,31H0M9,13H0" style="stroke: black; stroke-width: 1;"></path>
     <g font-family="Arial" font-size="17" space="preserve" fill="black" text-anchor="end">
      <text dy=".4em" transform="translate(-2,477)">
       0
      </text>
      <text dy=".4em" transform="translate(-2,403)">
       200
      </text>
      <text dy=".4em" transform="translate(-2,328)">
       400
      </text>
      <text dy=".4em" transform="translate(-2,254)">
       600
      </text>
      <text dy=".4em" transform="translate(-2,180)">
       800
      </text>
      <text dy=".4em" transform="translate(-2,106)">
       1000
      </text>
      <text dy=".4em" transform="translate(-2,31)">
       1200
      </text>
     </g>
    </g>
   </g>
  </g>
  <g transform="translate(60,47)" font-family="Arial" font-size="7" space="preserve">
   <path d="M0,0H226V94H0Z" style="fill: #f2f2f2; stroke: black; stroke-width: 1;"></path>
   <text fill="black" text-anchor="start" dy=".4em" transform="translate(7,14)">
    The Legend Title
   </text>
   <path d="M7,27v18h43v-18z" style="fill: url(#pat_3003_416); stroke: #000099; stroke-width: 1;"></path>
   <text fill="black" text-anchor="start" dy=".4em" transform="translate(57,36)">
    Histogram filled with random numbers
   </text>
   <path d="M7,58H50" style="stroke: blue; stroke-width: 4;"></path>
   <g transform="translate(57,61) scale(0.371)">
    <text fill="black" font-size="20">
     Function abs(
    </text>
    <g transform="translate(122)">
     <text fill="black" font-size="20" transform="translate(0,-12)">
      sin(x)
     </text>
     <path style="stroke: black; stroke-width: 1; fill: none;" d="M0,-7h48"></path>
     <text fill="black" font-size="20" transform="translate(20,12)">
      x
     </text>
    </g>
    <text fill="black" font-size="20" x="172">
     )
    </text>
   </g>
   <path d="M7,80H50" style="stroke: red; stroke-width: 2;"></path>
   <path d="M29,71V89" style="stroke: red; stroke-width: 2;"></path>
   <path d="M23,75v10h10v-10z" style="stroke: cyan; fill: cyan;"></path>
   <text fill="black" text-anchor="start" dy=".4em" transform="translate(57,80)">
    Graph with error bars
   </text>
  </g>
  <g transform="translate(190,2)" font-family="Arial" font-size="23" space="preserve">
   <text fill="black" text-anchor="middle" dy=".4em" transform="translate(109,15)">
    TLegend Example
   </text>
  </g>
 </g>
</svg>

<svg xmlns="http://www.w3.org/2000/svg" viewBox="0 0 596 472" preserveAspectRatio="none" width="596" height="472">
 <defs>
  <pattern id="pat_3003_416" patternUnits="userSpaceOnUse" width="4" height="4">
   <path d="M2,1h1v1h-1zM0,3h1v1h-1z" style="fill: green;"></path>
  </pattern>
 </defs>
 <path d="M0,0H596V472H0Z" style="fill: white;"></path>
 <g>
  <g transform="rotate(-90,60,47) translate(-318,47)">
   <path d="M0,0H378V477H0Z" style="fill: white; stroke: black; stroke-width: 1;"></path>
   <svg x="0" y="0" overflow="hidden" width="378" height="477" viewBox="0 0 378 477">
    <g>
     <path d="M0,477h108v-1h2v1h9v-1h2v1h2v-1h2v-2h2v1h2v1h1v-4h2v-1h4v-7h2v-1h2v2h2v-14h2v2h2v-13h1v-6h2v-16h2v-11h2v-12h2v-13h2v-12h2v-29h2v-24h2v-10h1v-36h2v-27h2v-35h2v-12h2v-36h2v-17h2v-34h2v-22h2v-11h1v-7h2v-21h2v-7h2v-19h2v13h2v-10h2v23h2v3h2v20h1v29h2v37h2v15h2v22h2v24h2v20h2v22h2v25h2v36h1v25h2v7h2v32h2v13h2v19h2v14h2v10h2v11h2v9h1v1h2v13h2v4h2v2h2v3h2v5h2v2h2v2h2v3h1v-2h2v1h2v-1h2v1h2v1h2v-1h2v1h4v-1h1v1h112L378,480H0Z" style="stroke-linejoin: miter; stroke: #000099; stroke-width: 1; fill: url(#pat_3003_416);"></path>
    </g>
    <g>
     <path d="M2,460L6,467L10,474L13,472L17,464L21,456L25,449L28,442L32,437L36,433L40,430L44,429L47,431L51,434L55,439L59,446L62,455L66,465L70,476L74,466L78,453L81,441L85,429L89,419L93,410L97,403L100,398L104,396L108,398L112,403L115,411L119,424L123,440L127,459L131,472L134,446L138,418L142,388L146,357L149,324L153,292L157,260L161,230L165,202L168,176L172,154L176,135L180,121L183,111L187,106L191,106L195,111L199,121L202,135L206,154L210,176L214,202L217,230L221,260L225,292L229,324L233,357L236,388L240,418L244,446L248,472L251,459L255,440L259,424L263,411L267,403L270,398L274,396L278,398L282,403L286,410L289,419L293,429L297,441L301,453L304,466L308,476L312,465L316,455L320,446L323,439L327,434L331,431L335,429L338,430L342,433L346,437L350,442L354,449L357,456L361,464L365,472L369,474L372,467L376,460" style="fill: none; stroke: blue; stroke-width: 4;"></path>
    </g>
    <g>
     <g transform="translate(21,403)">
      <path style="stroke: red; stroke-width: 2; fill: none;" d="M0,0H-19m0,4v-8M0,0H19m0,4v-8"></path>
     </g>
     <g transform="translate(54,367)">
      <path style="stroke: red; stroke-width: 2; fill: none;" d="M0,0H-19m0,4v-8M0,0H19m0,4v-8M0,0V4m4,0h-8M0,0V-4m4,0h-8"></path>
     </g>
     <g transform="translate(88,332)">
      <path style="stroke: red; stroke-width: 2; fill: none;" d="M0,0H-19m0,4v-8M0,0H19m0,4v-8M0,0V7m4,0h-8M0,0V-7m4,0h-8"></path>
     </g>
     <g transform="translate(122,299)">
      <path style="stroke: red; stroke-width: 2; fill: none;" d="M0,0H-19m0,4v-8M0,0H19m0,4v-8M0,0V11m4,0h-8M0,0V-11m4,0h-8"></path>
     </g>
     <g transform="translate(155,267)">
      <path style="stroke: red; stroke-width: 2; fill: none;" d="M0,0H-19m0,4v-8M0,0H19m0,4v-8M0,0V15m4,0h-8M0,0V-15m4,0h-8"></path>
     </g>
     <g transform="translate(189,238)">
      <path style="stroke: red; stroke-width: 2; fill: none;" d="M0,0H-19m0,4v-8M0,0H19m0,4v-8M0,0V19m4,0h-8M0,0V-19m4,0h-8"></path>
     </g>
     <g transform="translate(223,211)">
      <path style="stroke: red; stroke-width: 2; fill: none;" d="M0,0H-19m0,4v-8M0,0H19m0,4v-8M0,0V22m4,0h-8M0,0V-22m4,0h-8"></path>
     </g>
     <g transform="translate(256,186)">
      <path style="stroke: red; stroke-width: 2; fill: none;" d="M0,0H-19m0,4v-8M0,0H19m0,4v-8M0,0V26m4,0h-8M0,0V-26m4,0h-8"></path>
     </g>
     <g transform="translate(290,164)">
      <path style="stroke: red; stroke-width: 2; fill: none;" d="M0,0H-19m0,4v-8M0,0H19m0,4v-8M0,0V30m4,0h-8M0,0V-30m4,0h-8"></path>
     </g>
     <g transform="translate(324,146)">
      <path style="stroke: red; stroke-width: 2; fill: none;" d="M0,0H-19m0,4v-8M0,0H19m0,4v-8M0,0V33m4,0h-8M0,0V-33m4,0h-8"></path>
     </g>
     <g transform="translate(357,131)">
      <path style="stroke: red; stroke-width: 2; fill: none;" d="M0,0H-19m0,4v-8M0,0H19m0,4v-8M0,0V37m4,0h-8M0,0V-37m4,0h-8"></path>
     </g>
     <path d="M16,398v10h10v-10zM49,362v10h10v-10zM83,327v10h10v-10zM117,294v10h10v-10zM150,262v10h10v-10zM184,233v10h10v-10zM217,205v10h10v-10zM251,181v10h10v-10zM285,159v10h10v-10zM318,141v10h10v-10zM352,126v10h10v-10z" style="stroke: cyan; fill: cyan;"></path>
    </g>
   </svg>
   <g>
    <g transform="translate(0,477)">
     <path d="M0,0h378M0,-14V0M9,-7V0M19,-7V0M28,-7V0M38,-14V0M47,-7V0M57,-7V0M66,-7V0M76,-14V0M85,-7V0M95,-7V0M104,-7V0M113,-14V0M123,-7V0M132,-7V0M142,-7V0M151,-14V0M161,-7V0M170,-7V0M180,-7V0M189,-14V0M198,-7V0M208,-7V0M217,-7V0M227,-14V0M236,-7V0M246,-7V0M255,-7V0M265,-14V0M274,-7V0M284,-7V0M293,-7V0M302,-14V0M312,-7V0M321,-7V0M331,-7V0M340,-14V0M350,-7V0M359,-7V0M369,-7V0M378,-14V0" style="stroke: black; stroke-width: 1;"></path>
     <g font-family="Arial" font-size="17" space="preserve" fill="black" text-anchor="middle">
      <text dy=".8em">
       -10
      </text>
      <text dy=".8em" transform="translate(38)">
       -8
      </text>
      <text dy=".8em" transform="translate(76)">
       -6
      </text>
      <text dy=".8em" transform="translate(113)">
       -4
      </text>
      <text dy=".8em" transform="translate(151)">
       -2
      </text>
      <text dy=".8em" transform="translate(189)">
       0
      </text>
      <text dy=".8em" transform="translate(227)">
       2
      </text>
      <text dy=".8em" transform="translate(265)">
       4
      </text>
      <text dy=".8em" transform="translate(302)">
       6
      </text>
      <text dy=".8em" transform="translate(340)">
       8
      </text>
      <text dy=".8em" transform="translate(378)">
       10
      </text>
     </g>
    </g>
    <g>
     <path d="M0,0v477M18,477H0M9,458H0M9,440H0M9,421H0M18,403H0M9,384H0M9,366H0M9,347H0M18,328H0M9,310H0M9,291H0M9,273H0M18,254H0M9,236H0M9,217H0M9,198H0M18,180H0M9,161H0M9,143H0M9,124H0M18,106H0M9,87H0M9,68H0M9,50H0M18,31H0M9,13H0" style="stroke: black; stroke-width: 1;"></path>
     <g font-family="Arial" font-size="17" space="preserve" fill="black" text-anchor="end">
      <text dy=".4em" transform="translate(-2,477)">
       0
      </text>
      <text dy=".4em" transform="translate(-2,403)">
       200
      </text>
      <text dy=".4em" transform="translate(-2,328)">
       400
      </text>
      <text dy=".4em" transform="translate(-2,254)">
       600
      </text>
      <text dy=".4em" transform="translate(-2,180)">
       800
      </text>
      <text dy=".4em" transform="translate(-2,106)">
       1000
      </text>
      <text dy=".4em" transform="translate(-2,31)">
       1200
      </text>
     </g>
    </g>
   </g>
  </g>
  <g transform="translate(60,47)" font-family="Arial" font-size="7" space="preserve">
   <path d="M0,0H226V94H0Z" style="fill: #f2f2f2; stroke: black; stroke-width: 1;"></path>
   <text fill="black" text-anchor="start" dy=".4em" transform="translate(7,14)">
    The Legend Title
   </text>
   <path d="M7,27v18h43v-18z" style="fill: url(#pat_3003_416); stroke: #000099; stroke-width: 1;"></path>
   <text fill="black" text-anchor="start" dy=".4em" transform="translate(57,36)">
    Histogram filled with random numbers
   </text>
   <path d="M7,58H50" style="stroke: blue; stroke-width: 4;"></path>
   <g transform="translate(57,61) scale(0.371)">
    <text fill="black" font-size="20">
     Function abs(
    </text>
    <g transform="translate(122)">
     <text fill="black" font-size="20" transform="translate(0,-12)">
      sin(x)
     </text>
     <path style="stroke: black; stroke-width: 1; fill: none;" d="M0,-7h48"></path>
     <text fill="black" font-size="20" transform="translate(20,12)">
      x
     </text>
    </g>
    <text fill="black" font-size="20" x="172">
     )
    </text>
   </g>
   <path d="M7,80H50" style="stroke: red; stroke-width: 2;"></path>
   <path d="M29,71V89" style="stroke: red; stroke-width: 2;"></path>
   <path d="M23,75v10h10v-10z" style="stroke: cyan; fill: cyan;"></path>
   <text fill="black" text-anchor="start" dy=".4em" transform="translate(57,80)">
    Graph with error bars
   </text>
  </g>
  <g transform="translate(190,2)" font-family="Arial" font-size="23" space="preserve">
   <text fill="black" text-anchor="middle" dy=".4em" transform="translate(109,15)">
    TLegend Example
   </text>
  </g>
 </g>
</svg>
